X: 11192
T: RICHER'S HORNPIPE
%R: hornpipe, reel
B: "Edinburgh Repository of Music" v.1 p.119 #2
F: http://digital.nls.uk/special-collections-of-printed-music/pageturner.cfm?id=87776133
Z: 2015 John Chambers <jc:trillian.mit.edu>
M: C
L: 1/8
K: D
fg |\
afaf d2fd | ecec A2GF | GABc defg | ecAc d2fg |\
afaf d2fd | ecec A2GF | Ggbg fdec | d2d2 d2 :|
|: de |\
fdec B2ga | b2e2- e2cd | ecdB | A2fg | a2d2 d3A |\
BcdB AFAF | BcdB AFAF | Ggbg fdec | d2d2 d2 :|

%%sep 2 1 500
%%sep 1 1 500

